!!!!SEGMENT: pl-kj--bj-muz-2692-iii_zelenski-wladyslaw--z-nocy-letnich.krn
!!!cenid: 18xx:3782
!!!COM: Żeleński, Władysław
!!!COM-rismid: pe41024455
!!!CDT:
!!!CNT:
!!!OTL: Z nocy letnich
!!!PDT: 1890
!!!AGN:
!!!SMS-siglum: PL-Kj
!!!SMS-shelfmark: BJ Muz. 2692 III
!!!SMS-shelfwork: W
!!!SMS-variant:
!!!SMS-altvar:
!!!NIFC-rismid:
!!!URL-scan: https://polona.pl/item/z-nocy-letnich,Nzk3NTMzNzk/0/#info:metadata
!!!ONB-nifc:
!!!OMD: Andante.
!!!key: A-
**kern	**kern	**dynam	**kern	**text	**dynam
*part2	*part2	*part2	*part1	*part1	*part1
*staff3	*staff2	*	*staff1	*staff1	*
*I"Fortepian.	*I"Fortepian.	*	*I"Śpiew.	*	*
*Ipiano	*Ipiano	*	*Ivox	*	*
*ICklav	*ICklav	*	*ICvox	*	*
*IGacmp	*IGacmp	*	*IGsolo	*	*
*clefF4	*clefF4	*	*clefG2	*	*
*k[b-e-a-d-]	*k[b-e-a-d-]	*	*k[b-e-a-d-]	*	*
*A-:	*A-:	*	*A-:	*	*
*M3/4	*M3/4	*	*M3/4	*	*
=1	=1	=1	=1	=1	=1
2.AA- 2.AAA-/	4r	p <	2.r	.	.
.	(4.E-\	.	.	.	.
.	8F\	[[	.	.	.
=2	=2	=2	=2	=2	=2
2.AA- 2.AAA-/	8A-\L)	>	2.r	.	.
.	(8B-\	.	.	.	.
.	8c\	.	.	.	.
*	*clefG2	*	*	*	*
.	8e-\	.	.	.	.
.	8f\	.	.	.	.
.	8a-\J	]]	.	.	.
=3	=3	=3	=3	=3	=3
*^	*	*	*	*	*
!LO:N:vis=2	!	!	!	!	!	!
8AA-/	2.AA-\	8cc\)	.	4r	.	.
4E-/	.	8r	.	.	.	.
!	!	!	!	!	!	!LO:HP:a
!	!	!	!	!LO:TX:a:i:t=dolce.	!	!LO:DY:a:rj
.	.	(4c/	.	[2cc\	W_cień	p <
4E-/	.	.	.	.	.	.
.	.	4f/)	.	.	.	.
8E-/	.	.	.	.	.	.
=4	=4	=4	=4	=4	=4	=4
!LO:N:vis=2	!	!	!	!	!	!
8AA-/	2.AA-\	4r	.	8cc,\]	.	[
!	!	!	!	!	!	!LO:HP:a
4E-/	.	.	.	8f/	o-	<
.	.	(4e-/	.	8g/	-wi-	.
4E-/	.	.	.	8a-/	-nę	.
.	.	4c/)	.	8g/	się	.
8E-/	.	.	.	8f/	jak	[[
!!LO:LB:g=original
=5	=5	=5	=5	=5	=5	=5
!LO:N:vis=2	!	!	!	!	!	!LO:HP:a
8BB-/	2.BB-\	4r	.	4dd-\	w_rą-	>
4E-/	.	.	.	.	.	.
.	.	(4d-/	.	4e-/	-bek	.
4E-/	.	.	.	.	.	]
.	.	[4a-/)	.	4r	.	.
8E-/	.	.	.	.	.	.
=6	=6	=6	=6	=6	=6	=6
*	*	*^	*	*	*	*
!LO:N:vis=2	!	!	!	!LO:HP:a	!	!	!
8BB-/	2.BB-\	8a-/L]	4r	<	2.r	.	.
4E-/	.	8f/	.	.	.	.	.
.	.	8g/	(2d-\	.	.	.	.
4E-/	.	8a-/	.	.	.	.	.
.	.	8g/	.	.	.	.	.
8E-/	.	8f/J	.	[	.	.	.
=7	=7	=7	=7	=7	=7	=7	=7
!LO:N:vis=2	!	!	!	!LO:HP:a	!	!	!
8C/	2.C\	(4a-/	8e-\)	>	8r	.	.
!	!	!	!	!	!	!	!LO:HP:a
4A-/	.	.	8r	.	(8e-/L	Księ-	<
.	.	8e-/)	4ryy	]	8f/J)	.	.
4A-/	.	8r	.	.	8a-/	-życ	.
.	.	4r	4ryy	.	8b-\	przy-	.
8A-/	.	.	.	.	8cc\	-ćmię	[[
=8	=8	=8	=8	=8	=8	=8	=8
*	*	*	*	*^	*	*	*
!LO:N:vis=2	!	!	!	!	!	!	!	!
8C/	2.C\	8r	4ryy	<	.	4.ee-\	gwia-	.
!	!	!	!	!	!LO:HP:a	!	!	!
4A-/	.	(>8e-/L	.	.	<	.	.	.
.	.	8c/	8ryy	.	.	.	.	.
4A-/	.	8e-/	4e-\	.	.	8cc,\	-zdy	.
.	.	8.a-/	.	.	.	8a-/	zdmu-	.
8A-/	.	.	8e-\	.	.	8cc\	-chnę	.
.	.	16g/Jk)	.	[	.	.	.	.
*v	*v	*	*	*v	*v	*	*	*
!!LO:LB:g=original
=9	=9	=9	=9	=9	=9	=9
!	!	!	!	!	!	!LO:HP:a
8FF/	[4g/	4r	.	4ff\	gwia-	>
4A- 4C/	.	.	.	.	.	.
.	8g/L]	[2c\	.	4cc\	-zdy	.
4A- 4C/	8b-/	.	.	.	.	]
.	8.a-/	.	.	4r	.	.
8A- 8C/	.	.	.	.	.	.
.	16en/Jk	.	.	.	.	.
=10	=10	=10	=10	=10	=10	=10
!	!	!	!LO:HP:a	!	!	!
8FF/	(4g/	4c\_	>	2.r	.	.
4A- 4C/	.	.	.	.	.	.
.	8f/)	8c\]	.	.	.	.
4A- 4C/	8r	8ryy	]	.	.	.
.	8r	4ryy	.	.	.	.
8A- 8C/	(8c/	.	.	.	.	.
=11	=11	=11	=11	=11	=11	=11
*^	*	*	*	*	*	*
!LO:N:vis=2	!	!	!	!	!	!	!
8BB-/	2.BB-\	4.e-/)	2ryy	.	4r	.	.
4F/	.	.	.	.	.	.	.
!	!	!	!	!	!	!	!LO:HP:a
.	.	.	.	.	[2ee-\	Skrzy-	<
4F/	.	(>8e-/L	.	.	.	.	.
.	.	8d-/	4An\	.	.	.	.
8F/	.	8c/J	.	.	.	.	.
=12	=12	=12	=12	=12	=12	=12	=12
!LO:N:vis=2	!	!	!	!	!	!	!
8BB-/	2.BB-\	8.B-/L	4B-\	<	8ee-\]	.	[
!	!	!	!	!	!	!	!LO:HP:a
4F/	.	.	.	.	8dd-\	-dła	<
.	.	16d-/Jk	.	.	.	.	.
.	.	4f/	8r	.	8cc\	we-	.
4F/	.	.	4d-\	.	8b-\	-zmę	.
.	.	4en/	.	.	8a-/	dwa	.
8F/	.	.	8d-\	[[	8g/	bie-	[[
=13	=13	=13	=13	=13	=13	=13	=13
!LO:N:vis=2	!	!	!	!	!	!	!LO:HP:a
8AA-/	2AA-\	4g/	2c\	>	(8cc/L	-lu-	>
4F/	.	.	.	.	8a-/J)	.	.
.	.	4f/)	.	.	4f/	-chne	.
4F/	.	.	.	.	.	.	]
.	4BB-\	(8.g/L	[4f\	] p	4r	.	.
[8F/	.	.	.	.	.	.	.
.	.	16dd-/Jk	.	.	.	.	.
!!LO:PB:g=original
=14	=14	=14	=14	=14	=14	=14	=14
8F/]	2C\	4cc/	4f\]	.	4r	.	.
4F/	.	.	.	.	.	.	.
.	.	4a-/)	4f\	.	4r	.	.
4F/	.	.	.	.	.	.	.
.	4FF\	8g/L	4c\	.	8b-/	I	.
8A-/	.	8f/J	.	.	8a-/	po-	.
=15	=15	=15	=15	=15	=15	=15	=15
!LO:N:vis=2	!	!	!	!	!	!	!LO:HP:a
8GG/	2.GG\	[2.en/	[2.c\	<	4.g/	-le-	<
4G/	.	.	.	.	.	.	.
4G/	.	.	.	.	8an/	-cę	.
.	.	.	.	.	8bn\	i	.
[8G/	.	.	.	.	8cc\	po-	.
=16	=16	=16	=16	=16	=16	=16	=16
!	!	!LO:N:vis=4	!	!	!	!	!
8G/]	[2.GG\	4.e/]	2.c\]	[	8ddn\	-le-	.
4G/	.	.	.	.	8een\	-cę	.
.	.	.	.	.	4.gg\	jak	[
4G/	.	(8dn/L	.	<	.	.	.
.	.	8en/	.	.	.	.	.
[8G/	.	8g/J	.	.	8cc\	go-	.
=17	=17	=17	=17	=17	=17	=17	=17
8G/L]	(4GG\]	8an/L	4f\	.	(8.een\L	-łą-	.
[8G/J	.	8bn/J	.	.	.	.	.
.	.	.	.	.	16ddn\Jk)	.	.
!	!LO:TUP:a	!	!	!	!	!	!
8G/]	12C\L)	8cc 8en/)	4ryy	[	4cc\	-bek.	.
.	12c\	.	.	.	.	.	.
8ryy	.	8r	.	.	.	.	.
.	12c\J	.	.	.	.	.	.
!LO:TUP:a	!	!	!	!	!	!	!
12c\L	4ryy	(8.ccc/L	4een\	pp	4r	.	.
12c\	.	.	.	.	.	.	.
12c\J	.	.	.	.	.	.	.
.	.	16aa-/Jk	.	.	.	.	.
*v	*v	*	*	*	*	*	*
=18	=18	=18	=18	=18	=18	=18
*Xtuplet	*	*	*	*	*	*
!	!LO:ACC:color=grey	!	!	!	!	!
12c\L	4dddn/	2ff#X\	.	2.r	.	.
12c\	.	.	.	.	.	.
12c\J	.	.	.	.	.	.
12c\L	4aan/)	.	.	.	.	.
12c\	.	.	.	.	.	.
12c\J	.	.	.	.	.	.
12c\L	(8.ccc/L	(4een\	<	.	.	.
12c\	.	.	.	.	.	.
12c\J	.	.	.	.	.	.
.	16gg/Jk	.	.	.	.	.
*clefG2	*	*	*	*	*	*
!!LO:LB:g=original
=19	=19	=19	=19	=19	=19	=19
*^	*	*	*	*	*	*
[4f#X/	12c\L	2bb-/)	2ee-X\)	.	2.r	.	.
.	12c\	.	.	[	.	.	.
.	12c\J	.	.	.	.	.	.
8.f#/L]	12c\L	.	.	.	.	.	.
.	12c\	.	.	.	.	.	.
.	12c\J	.	.	.	.	.	.
16g/Jk	.	.	.	.	.	.	.
4an/	12c\L	(4ff#X/	(4ee-\	[	.	.	.
.	12c\	.	.	.	.	.	.
.	12c\J	.	.	.	.	.	.
*	*	*v	*v	*	*	*	*
=20	=20	=20	=20	=20	=20	=20
8b-/	12c\L	4gg 4ddn\))	<	2.r	.	.
.	12c\	.	.	.	.	.
8ryy	.	.	.	.	.	.
.	12c\J	.	.	.	.	.
12c\L	4ryy	(4dd 4b-\	.	.	.	.
12c\	.	.	.	.	.	.
12c\J	.	.	.	.	.	.
12c\L	4ryy	4ff 4an\	.	.	.	.
12c\	.	.	.	.	.	.
12c\J	.	.	.	.	.	.
*v	*v	*	*	*	*	*
=21	=21	=21	=21	=21	=21
12c/L	8.eenL 8.g\)	.	2.r	.	.
12c/	.	.	.	.	.
12c/J	.	.	.	.	.
.	(16ddnJk 16f\	.	.	.	.
12c/L	4cc 4en/	.	.	.	.
12c/	.	.	.	.	.
12c/J	.	.	.	.	.
!	!	!LO:HP:t=dim.	!	!	!
12c/L	8.ddL 8.f/)	>	.	.	.
12c/	.	.	.	.	.
12c/J	.	.	.	.	.
.	(>16ffJk 16an/	.	.	.	.
=22	=22	=22	=22	=22	=22
12c/L	8.eenL 8.g/)	.	4r	.	.
12c/	.	.	.	.	.
12c/J	.	.	.	.	.
.	(16bnJk 16dn/	.	.	.	.
12c/L	4cc 4en/)	.	4r	.	.
12c/	.	.	.	.	.
12c/J	.	.	.	.	.
!	!	!	!LO:TX:a:i:t=dolce.	!	!
12c/L	4an 4f/	p	8cc\	Mój	.
12c/	.	.	.	.	.
.	.	.	8cc\	go-	.
12c/J	.	.	.	.	.
!!LO:LB:g=original
=23	=23	=23	=23	=23	=23
*	*^	*	*	*	*
12c/L	[4b-/	8.f\L	.	4.ddn\	-ści-	.
12c/	.	.	.	.	.	.
12c/J	.	.	.	.	.	.
.	.	16dn\Jk	.	.	.	.
12c/L	8b-/]	8en\	.	.	.	.
!	!	!	!	!	!	!LO:HP:a
12c/	.	.	.	.	.	<
.	8r	8ryy	.	8g/	-niec	.
12c/J	.	.	<	.	.	.
*clefF4	*	*	*	*	*	*
12C/L	4g/	4e\	.	8an/	mle-	.
12C/	.	.	.	.	.	.
.	.	.	.	8b-/	-czna	[[
12C/J	.	.	[[	.	.	.
=24	=24	=24	=24	=24	=24	=24
12C/L	[4an/	8.g\L	.	4an/	dro-	.
12C/	.	.	.	.	.	.
12C/J	.	.	.	.	.	.
.	.	16en\Jk	.	.	.	.
12C/L	8a/]	8f\	.	4cc\	-ga,	.
12C/	.	.	.	.	.	.
.	8r	8ryy	.	.	.	.
12C/J	.	.	.	.	.	.
!	!	!	!	!	!	!LO:DY:a:rj
12C/L	4f 4An/	4ryy	p	8ff\	Mój	p
12C/	.	.	.	.	.	.
.	.	.	.	8a/	prze-	.
12C/J	.	.	.	.	.	.
=25	=25	=25	=25	=25	=25	=25
*^	*	*	*	*	*	*
[4G/	12C\L	8.f/L	[4B-\	.	4ddn\	-wo-	.
.	12C\	.	.	.	.	.	.
.	12C\J	.	.	.	.	.	.
.	.	16dn/Jk	.	.	.	.	.
8G/]	12C\L	8en/	8B-\]	.	8g/	-dnik	.
.	12C\	.	.	.	.	.	.
8rA	.	8r	8ryy	.	(8g/L	co	.
.	12C\J	.	.	.	.	.	.
4r	12C\L	4e 4B-/	4ryy	.	8an/J)	.	.
.	12C\	.	.	.	.	.	.
.	.	.	.	.	8b-/	tam	.
.	12C\J	.	.	.	.	.	.
=26	=26	=26	=26	=26	=26	=26	=26
12C/L	(4FF\	(4g/	[4An\	.	4an/	mru-	.
12C/	.	.	.	.	.	.	.
12C/J	.	.	.	.	.	.	.
(12C'/L	4AAn\	4f/)	4A\]	.	8cc\	-ga	.
12F'/)	.	.	.	.	.	.	.
!	!	!	!	!	!	!	!LO:HP:a
.	.	.	.	.	(8f/L	Gwiazd-	<
12F/J	.	.	.	.	.	.	.
12F/L	4C\)	[4f/	(8.e-\L	.	8g/J)	.	.
12F/	.	.	.	.	.	.	.
.	.	.	.	.	8a/	-ka	.
12F/J	.	.	.	.	.	.	.
.	.	.	16c\Jk	.	.	.	.
!!LO:LB:g=original
=27	=27	=27	=27	=27	=27	=27	=27
!LO:N:vis=3	!	!	!	!	!	!	!
12BB-/L	2.BB-\	4f/_	4e-\	.	4cc\	je-	.
12F/	.	.	.	.	.	.	.
12F/J	.	.	.	.	.	.	.
12F/L	.	8f/]	8d-X\)	.	8b-\	-dna	.
12F/	.	.	.	.	.	.	.
!	!	!	!	!	!	!	!LO:DY:a:rj
.	.	8r	8ryy	.	(8b-\L	gwiazd-	p
12F/J	.	.	.	p	.	.	.
12F/L	.	[4f/	(8.d-\L	.	8cc\J)	.	.
12F/	.	.	.	.	.	.	.
.	.	.	.	.	8dd-\	-ka	.
12F/J	.	.	.	.	.	.	.
.	.	.	16B-\Jk	.	.	.	.
=28	=28	=28	=28	=28	=28	=28	=28
!LO:N:vis=3	!	!	!	!	!	!	!
12AA-/L	2.AA-\	4f/_	4d-\	.	4ff\	dru-	.
12F/	.	.	.	.	.	.	.
12F/J	.	.	.	.	.	.	.
12F/L	.	8f/]	8c\)	.	4cc\	-ga,	.
12F/	.	.	.	.	.	.	.
.	.	(>8Bn/L	8ryy	<	.	.	.
12F/J	.	.	.	.	.	.	.
12F/L	.	8c/	[4c\	.	4r	.	.
12F/	.	.	.	.	.	.	.
.	.	8en/J	.	.	.	.	.
12F/J	.	.	.	.	.	.	.
*v	*v	*	*	*	*	*	*
=29	=29	=29	=29	=29	=29	=29
12FF/L	(8.f/L)	2c\]	.	4r	.	.
12A- 12C/	.	.	.	.	.	.
12A-J 12C/	.	.	.	.	.	.
.	16g/Jk	.	.	.	.	.
12A-L 12C/	4.a-/	.	[	4r	.	.
12A- 12C/	.	.	.	.	.	.
12A-J 12C/	.	.	.	.	.	.
12A-L 12C/	.	[4c\	.	8cc\	Co	.
12A- 12C/	.	.	.	.	.	.
.	8g/)	.	.	8cc\	się	.
12A-J 12C/	.	.	.	.	.	.
=30	=30	=30	=30	=30	=30	=30
!	!	!	!	!	!	!LO:HP:a
12FF/L	([4f/	4c\]	.	[2aa-\	pa-	<
12A- 12C/	.	.	.	.	.	.
12A-J 12C/	.	.	.	.	.	.
12A-L 12C/	8f/L]	[2c\	<	.	.	.
12A- 12C/	.	.	.	.	.	.
.	8g/	.	.	.	.	.
12A-J 12C/	.	.	.	.	.	.
12A-L 12C/	8.a-/	.	.	8aa-\]	.	[
12A- 12C/	.	.	.	.	.	.
.	.	.	.	8gg\	-li	.
12A-J 12C/	.	.	.	.	.	.
.	16cc/Jk)	.	[[	.	.	.
!!LO:PB:g=original
=31	=31	=31	=31	=31	=31	=31
*^	*	*	*	*	*	*
!	!	!	!LO:TX:b:t=P:problem=brak zakończenia ligatury	!	!	!	!
12A-/L	12C\L	(8.cc/L	4c\_	.	8ff\	u	.
12A-/	12C\	.	.	.	.	.	.
.	.	.	.	.	8cc\	stóp	.
12A-/J	12C\J	.	.	.	.	.	.
.	.	16a-/Jk	.	<	.	.	.
!	!	!	!	!	!	!	!LO:HP:a
8A-/	8C\	8f 8c/])	4ryy	.	8b-\	Bo-	<
8r	8ryy	8r	.	<	8a-/	-ga	.
4A- 4F\	4ryy	4dn 4c/	4ryy	.	8g/	u	.
.	.	.	.	[[	8f/	stóp	.
*v	*v	*	*	*	*	*	*
=32	=32	=32	=32	=32	=32	=32
!	!	!	!	!	!	!LO:DY:a
2F 2GG/	(>4a- 4c/	2ryy	.	4a-/	Bo-	>
.	4g 4Bn/)	.	.	4g/	-ga	.
(4E- (4GG/	(8.b-/L	4c\	sfz >	4r	.	]
.	16a-/Jk	.	]]	.	.	.
=33	=33	=33	=33	=33	=33	=33
2Dn 2GG/))	2g 2Bn/)	2ryy	.	2.r	.	.
!	!LO:TX:b:i:t=espres.	!	!LO:DY:rj	!	!	!
4E- 4C/	(8.g/L	4c\	p	.	.	.
.	16g/Jk	.	.	.	.	.
=34	=34	=34	=34	=34	=34	=34
[2.F [2.BB-/	4b-/	2d-X\	.	2.r	.	.
.	4f/)	.	.	.	.	.
.	(8.dd-/L	8.f\L	.	.	.	.
.	16cc/Jk	16e-\Jk	.	.	.	.
=35	=35	=35	=35	=35	=35	=35
!	!	!	!LO:HP:t=cresc	!	!	!
4F] 4BB-/]	4.b- 4.f 4.d-/)	2ryy	<	2.r	.	.
(2BB-^/	.	.	.	.	.	.
.	8a- 8e- 8c/	.	.	.	.	.
.	(8gL 8B-/	4d-\	.	.	.	.
.	8fJ 8A-/	.	.	.	.	.
=36	=36	=36	=36	=36	=36	=36
8.EE-/L	[4e- [<4d-/)	8.G\L	.	2.r	.	.
16FF/Jk	.	16A-\Jk	.	.	.	.
8GG/)	8e-] 8d-/]	8B-\	<	.	.	.
8r	8r	8ryy	.	.	.	.
(4FF/	(8.a-/L	[4d- 4A-\	.	.	.	.
.	16f/Jk	.	[[	.	.	.
*	*v	*v	*	*	*	*
!!LO:LB:g=original
=37	=37	=37	=37	=37	=37
8GG/)	8e- 8d-] 8B-/)	.	2.r	.	.
4E-\	8r	.	.	.	.
.	4r	.	.	.	.
4E-\	.	.	.	.	.
.	4r	.	.	.	.
8E-\	.	.	.	.	.
=38	=38	=38	=38	=38	=38
*^	*	*	*	*	*
!LO:N:vis=2	!	!	!	!	!	!
8AA-/	2.AA-\	16r	pp	4r	.	.
.	.	(16c/LL	<	.	.	.
4E-/	.	16e-/	.	.	.	.
.	.	16f/JJ	.	.	.	.
!	!	!	!	!	!	!LO:DY:a:rj
!	!	!	!	!LO:TX:a:i:t=dolce	!	!LO:HP:a
.	.	16g/LL	[	[2cc\	Ty-	pp <
.	.	16f/	>	.	.	.
4E-/	.	16g/	.	.	.	.
.	.	16f/JJ	.	.	.	.
.	.	8e-/)	.	.	.	.
8E-/	.	8r	]	.	.	.
=39	=39	=39	=39	=39	=39	=39
!LO:N:vis=2	!	!	!	!	!	!
8AA-/	2.AA-\	16r	<	8cc\]	.	[
.	.	(16c/LL	.	.	.	.
!	!	!	!	!	!	!LO:HP:a
4E-/	.	16e-/	.	8f/	-le	<
.	.	16c/JJ	[	.	.	.
.	.	16e-/LL	>	8g/	smut-	.
.	.	16c/	.	.	.	.
4E-/	.	16e-/	.	8a-/	-ków	.
.	.	16f/JJ	.	.	.	.
.	.	8e-/)	.	8g/	przez	.
8E-/	.	8r	]	8f/	dzień	[
=40	=40	=40	=40	=40	=40	=40
!LO:N:vis=2	!	!	!	!	!	!LO:HP:a
8BB-/	2.BB-\	16r	<	4dd-\	ca-	>
.	.	(16d-/LL	.	.	.	.
4E-/	.	16f/	.	.	.	.
.	.	16a-/JJ	.	.	.	.
.	.	16g/LL	[	8e-/	-ły	.
.	.	.	>	.	.	]
.	.	16f/	.	.	.	.
4E-/	.	16g/	.	8r	.	.
.	.	16f/JJ	.	.	.	.
.	.	[4a-/)	.	4r	.	.
8E-/	.	.	]	.	.	.
!!LO:LB:g=original
=41	=41	=41	=41	=41	=41	=41
*	*	*^	*	*	*	*
!LO:N:vis=2	!	!	!	!	!	!	!
8BB-/	2.BB-\	8a-/L]	4r	.	2.r	.	.
4E-/	.	(8f/	.	.	.	.	.
.	.	8g/	(2d-\	.	.	.	.
4E-/	.	8a-/	.	.	.	.	.
.	.	8g/	.	.	.	.	.
8E-/	.	8f/J	.	.	.	.	.
*	*	*v	*v	*	*	*	*
=42	=42	=42	=42	=42	=42	=42
!LO:N:vis=2	!	!	!	!	!	!
8C/	2.C\	16a-LL 16e-/))	.	8r	.	.
!	!	!	!LO:HP:t=poco cresc.	!	!	!
.	.	(16e-/	<	.	.	.
4A-/	.	16c/	.	(8e-/L	Ty-	.
.	.	16e-/JJ	.	.	.	.
.	.	16c/LL	.	8f/J)	.	.
.	.	16e-/	.	.	.	.
4A-/	.	16c/	.	8a-/	-le	.
.	.	16f/JJ	.	.	.	.
.	.	8e-/)	.	8b-\	tro-	.
8A-/	.	8r	.	8cc\	-ski	.
=43	=43	=43	=43	=43	=43	=43
!LO:N:vis=2	!	!	!	!	!	!
8C/	2.C\	16r	.	4.ee-\	ty-	.
.	.	(16e-/LL	.	.	.	.
4A-/	.	16c/	.	.	.	.
.	.	16e-/JJ	.	.	.	.
.	.	16c/LL	.	.	.	.
.	.	16e-/	.	.	.	.
4A-/	.	16c/	.	8cc,\	-le	.
.	.	16e-/JJ	.	.	.	.
.	.	8.a-/L	.	8a-/	nu-	.
8A-/	.	.	.	8cc\	-dy	.
.	.	16g/Jk)	.	.	.	.
*v	*v	*	*	*	*	*
=44	=44	=44	=44	=44	=44
*	*^	*	*	*	*
8FF/	[4g/	4r	.	4ff\	tro-	.
4A- 4C/	.	.	.	.	.	.
.	(16g/LL]	[2c\	.	4cc\	-ski	.
.	16f/	.	.	.	.	.
4A- 4C/	16g/	.	.	.	.	.
.	16b-/JJ	.	.	.	.	.
.	8.a-/L)	.	.	4r	.	.
8A- 8C/	.	.	.	.	.	.
.	16en/Jk	.	.	.	.	.
!!LO:LB:g=original
=45	=45	=45	=45	=45	=45	=45
8FF/	(4g/	16c\LL]	.	2.r	.	.
.	.	(16c\	.	.	.	.
4A- 4C/	.	16d-\	.	.	.	.
.	.	16c\JJ	.	.	.	.
.	8f/)	16d-\LL	.	.	.	.
.	.	16c\	.	.	.	.
4A- 4C/	8r	16Bn\	.	.	.	.
.	.	16d-\JJ	.	.	.	.
.	8r	8c\)	.	.	.	.
8A- 8C/	8c/	8r	.	.	.	.
*	*v	*v	*	*	*	*
=46	=46	=46	=46	=46	=46
*^	*	*	*	*	*
!LO:N:vis=2	!	!	!	!	!	!
8BB-/	2.BB-\	([4e-/	.	4r	.	.
4F/	.	.	.	.	.	.
!	!	!	!	!LO:TX:a:i:t=espres.	!	!LO:HP:a
.	.	16e-/LL]	.	[2ee-\	Wi-	<[
.	.	16d-/	.	.	.	.
4F/	.	16c/	.	.	.	.
.	.	16e-/JJ	.	.	.	.
.	.	8.d-/L	.	.	.	.
8F/	.	.	.	.	.	.
.	.	16c/Jk)	.	.	.	.
=47	=47	=47	=47	=47	=47	=47
*	*	*^	*	*	*	*
!LO:N:vis=2	!	!	!	!	!	!	!
8BB-/	2.BB-\	(8.B-/L	4B-\	<	8ee-\]	.	.
!	!	!	!	!	!	!	!LO:HP:a
4F/	.	.	.	.	8dd-\	-taj	<
.	.	16d-/Jk	.	.	.	.	.
.	.	4f/	8r	.	8cc\	dru-	.
4F/	.	.	4d-\	.	8b-\	-chu	.
.	.	4en/)	.	.	8a-/	wi-	.
8F/	.	.	8d-\	[[	8g/	-taj	[[
=48	=48	=48	=48	=48	=48	=48	=48
!LO:N:vis=2	!	!	!	!	!	!	!LO:HP:a
8AA-/	2AA-\	[4g/	8r	>	(8cc\L	bia-	>
4F/	.	.	4c\	.	8a-\J)	.	.
.	.	(16g/LL]	.	.	4f/	-ły!	.
.	.	16b-/	.	.	.	.	]
4F/	.	16a-/	8c\	.	.	.	.
.	.	16f/JJ	.	.	.	.	.
.	4BB-\	8.g/L	[4f\	] p	4r	.	.
!LO:TX:t=P:problem=brak początku ligatury	!	!	!	!	!	!	!
[8F/	.	.	.	.	.	.	.
.	.	16dd-/Jk	.	.	.	.	.
!!LO:PB:g=original
=49	=49	=49	=49	=49	=49	=49	=49
8F/L]	2C\	4cc 4f/])	2ryy	.	4r	.	.
[8F/J	.	.	.	.	.	.	.
16F/LL]	.	4a- 4f/	.	.	4r	.	.
16En/	.	.	.	.	.	.	.
16F/	.	.	.	.	.	.	.
16G/JJ	.	.	.	.	.	.	.
!	!	!	!	!	!	!	!LO:HP:a
[4A-/	8F\L	8.dn/L	[4c\	.	8f/	Cza-	<
.	8Dn\J	.	.	.	8a-/	-ro-	.
.	.	16f/Jk	.	.	.	.	.
*	*	*v	*v	*	*	*	*
=50	=50	=50	=50	=50	=50	=50
8A-/]	[2.E-\	16e-LL 16c/]	.	8cc\	-dziej-	.
!	!	!LO:TX:b:i:t=suivez.	!	!	!	!
.	.	(16e-/	.	.	.	.
4A-/	.	16c/	.	8ee-\	-skich	.
.	.	16e-/JJ	.	.	.	[
.	.	16c/LL	.	4.gg;\	snów	.
.	.	16e-/	.	.	.	.
4A-/	.	16c/	.	.	.	.
.	.	16e-/JJ	.	.	.	.
.	.	16c/LL	.	.	.	.
.	.	16e-/	.	.	.	.
[8A-/	.	16c/	.	8cc\	u-	.
.	.	16e-/JJ	.	.	.	.
=51	=51	=51	=51	=51	=51	=51
4A-/_	4E-\_	16c/LL	.	4ff\	-łu-	.
.	.	16e-/	.	.	.	.
.	.	16f/	.	.	.	.
.	.	16a-/JJ	.	.	.	.
!	!	!LO:TX:b:i:t=poco rit.	!	!LO:TX:a:i:t=poco rit.	!	!
8A-/]	8E-\]	8cc\)	.	8ee-\	-dy	.
8r	8ryy	8r	.	(8cc\L	cza-	.
4r	4ryy	4r	.	8a-\J)	.	.
.	.	.	.	8f/	-ro-	.
*v	*v	*	*	*	*	*
=52	=52	=52	=52	=52	=52
4r	4r	.	[2dd-\	-dziej-	.
2E- 2EE-/	(4g 4e-/	>	.	.	.
.	4b- 4d-/	.	8dd-\]	.	.
.	.	]]	8g/	-skich	.
!!LO:LB:g=original
=53	=53	=53	=53	=53	=53
*^	*	*	*	*	*
4r	[2.AA- [2.AAA-\	8a- 8c/)	.	2a-/	snów.	.
.	.	8r	.	.	.	.
2ryy	.	(4.E-</	p	.	.	.
!	!	!	!	!LO:TX:a:B:t=a tempo.:rj	!	!
.	.	.	.	4r	.	.
.	.	8F</	.	.	.	.
*v	*v	*	*	*	*	*
=54	=54	=54	=54	=54	=54
!	!LO:TX:t=P:problem=mixed beam	!	!	!	!
2.AA-] 2.AAA-\]	8A-</L)	.	2.r	.	.
.	(8B-</	.	.	.	.
.	8c\	<	.	.	.
.	8e-\	.	.	.	.
.	8f\	.	.	.	.
.	8a-\J	[	.	.	.
=55	=55	=55	=55	=55	=55
*^	*	*	*	*	*
!LO:N:vis=2	!	!	!	!	!	!
8AA-/	2.AA-\	8cc\)	.	4r	.	.
4E-/	.	8r	.	.	.	.
!	!	!	!	!LO:TX:a:i:t=poco più animato.	!	!LO:HP:a
.	.	(4c/	p	[2cc\	Gdzie	<
4E-/	.	.	.	.	.	.
.	.	4f/)	.	.	.	.
8E-/	.	.	.	.	.	.
=56	=56	=56	=56	=56	=56	=56
!LO:N:vis=2	!	!	!	!	!	!
8AA-/	2.AA-\	4r	.	8cc,\]	.	[
!	!	!	!	!LO:TX:a:i:t=dolce.	!	!
4E-/	.	.	.	8f/	po-	.
.	.	(4e-/	.	8g/	-le-	.
4E-/	.	.	.	8a-/	-cę	.
.	.	4c/)	.	8g/	gdzie	.
8E-/	.	.	.	8f/	po-	.
!!LO:LB:g=original
=57	=57	=57	=57	=57	=57	=57
!LO:N:vis=2	!	!	!	!	!	!
8BB-/	2.BB-\	4r	.	4dd-\	-pły-	.
4E-/	.	.	.	.	.	.
.	.	(4d-/	<	4e-/	-nę	.
4E-/	.	.	.	.	.	.
.	.	[4a-/)	.	4r	.	.
8E-/	.	.	.	.	.	.
=58	=58	=58	=58	=58	=58	=58
*	*	*^	*	*	*	*
!LO:N:vis=2	!	!	!	!	!	!	!
8BB-/	2.BB-\	8a-/L]	4r	.	2.r	.	.
4E-/	.	8f/	.	[	.	.	.
.	.	8g/	(2d-\	.	.	.	.
4E-/	.	8a-/	.	.	.	.	.
.	.	8g/	.	.	.	.	.
8E-/	.	8f/J	.	.	.	.	.
=59	=59	=59	=59	=59	=59	=59	=59
!LO:N:vis=2	!	!	!	!	!	!	!
8C/	2.C\	(4a-/	8e-\)	>	8r	.	.
!	!	!	!	!	!	!	!LO:HP:a
4A-/	.	.	8r	.	(8e-/L	Nim	<
.	.	8e-/)	4ryy	.	8f/J)	.	.
4A-/	.	8r	.	]	8a-/	mnie	.
.	.	4r	4ryy	.	8b-\	schwy-	.
8A-/	.	.	.	.	8cc\	-ci	[[
=60	=60	=60	=60	=60	=60	=60	=60
!LO:N:vis=2	!	!	!	!	!	!	!
8C/	2.C\	8r	4ryy	.	4.ee-\	ra-	.
4A-/	.	(>8e-/L	.	<	.	.	.
.	.	8c/	8ryy	.	.	.	.
4A-/	.	8e-/	4e-\	.	8cc,\	-nek	.
.	.	8.a-/	.	.	8a-/	schwy-	.
8A-/	.	.	8e-\	.	8cc\	-ci	.
.	.	16g/Jk)	.	[[	.	.	.
*v	*v	*	*	*	*	*	*
!!LO:LB:g=original
=61	=61	=61	=61	=61	=61	=61
!	!	!	!	!	!	!LO:HP:a
8FF/	([4g/	4r	.	4ff\	sza-	>
4A- 4C/	.	.	.	.	.	.
.	8g/L]	[2c\	.	4cc\	-ry	.
4A- 4C/	8b-/	.	.	.	.	]
.	8.a-/	.	.	4r	.	.
8A- 8C/	.	.	.	.	.	.
.	16en/Jk	.	.	.	.	.
=62	=62	=62	=62	=62	=62	=62
8FF/	4g/	4c\_	>	2.r	.	.
4A- 4C/	.	.	.	.	.	.
.	8f/)	8c\]	.	.	.	.
4A- 4C/	8r	8ryy	]	.	.	.
.	8r	4ryy	.	.	.	.
8A- 8C/	8c/	.	.	.	.	.
=63	=63	=63	=63	=63	=63	=63
*^	*	*	*	*	*	*
!LO:N:vis=2	!	!	!	!	!	!	!
8BB-/	2.BB-\	4rff	4.e-\	.	4r	.	.
4F/	.	.	.	.	.	.	.
!	!	!	!	!	!LO:TX:a:B:t=Tempo. I	!	!
.	.	[2ee-/	.	.	4.f/	W_step	.
4F/	.	.	(8d-\L	<	.	.	.
.	.	.	8c\	.	.	.	.
8F/	.	.	8B-\J	.	8f/	sze-	.
=64	=64	=64	=64	=64	=64	=64	=64
!LO:N:vis=2	!	!	!	!	!	!	!
8BB-/	2.BB-\	8ee-/L]	2f\)	.	[2ff\	-ro-	.
4F/	.	(8dd-/	.	.	.	.	.
.	.	8cc/	.	.	.	.	.
4F/	.	8b-/	.	.	.	.	.
.	.	8.a-/	(4en\	.	(8ff\L]	.	.
8F/	.	.	.	.	8dd-\J)	.	.
.	.	16g/Jk	.	[[	.	.	.
!!LO:PB:g=original
=65	=65	=65	=65	=65	=65	=65	=65
!LO:N:vis=2	!	!	!LO:TX:b:t=P:problem=brak zakończenia łuku	!	!	!	!
8AA-/	2.AA-\	8.cc/L	2c\)	.	4cc\	-ki	.
4F/	.	.	.	.	.	.	.
.	.	16a-/Jk	.	.	.	.	.
.	.	4f/)	.	.	4r	.	.
4F/	.	.	.	.	.	.	.
!	!	!	!	!	!	!	!LO:DY:a:rj
.	.	(8f/L	4d-\	p	8.g/	w_mórz	p
8F/	.	8g/J	.	.	.	.	.
.	.	.	.	.	16dd-\	głę-	.
*	*	*v	*v	*	*	*	*
=66	=66	=66	=66	=66	=66	=66
!LO:N:vis=2	!	!	!	!	!	!
8C/	2C\	2a- 2c/)	.	(8cc/L	-bi-	.
4F/	.	.	.	8a-/J)	.	.
.	.	.	.	4f/	-nę	.
4F/	.	.	.	.	.	.
!	!	!	!	!	!	!LO:DY:a:rj
.	4FF\	(>4dn 4c/	.	8b-/	Pod	p
8A-/	.	.	.	8a-/	blę-	.
=67	=67	=67	=67	=67	=67	=67
*	*	*^	*	*	*	*
!LO:N:vis=2	!	!	!	!	!LO:TX:a:i:t=dolce.	!	!
8GG/	2.GG\	[2.en/)	[2.c\	.	4.g/	-kit-	.
4G/	.	.	.	.	.	.	.
4G/	.	.	.	.	8an/	-nych	.
.	.	.	.	.	8cc\	zórz	.
8G/	.	.	.	.	8een\	ko-	.
=68	=68	=68	=68	=68	=68	=68	=68
!LO:N:vis=2	!	!	!	!	!	!	!
8GG/	[2.GG\	8e/L]	2c\_	<	4.gg\	-ta-	.
4G/	.	8dn/	.	.	.	.	.
!	!	!	!	!	!	!	!LO:HP:a
.	.	8en/	.	.	.	.	<
4G/	.	8g/	.	.	8een,\	-ry,	.
.	.	8e/	4c\]	.	8cc\	pod	.
8G/	.	8c/J	.	[	8an/	ko-	[[
!!LO:LB:g=original
=69	=69	=69	=69	=69	=69	=69	=69
!	!	!	!	!	!	!	!LO:HP:a
8G/L	(4GG\]	(4f/	8An\L	>	8.een\	-ta-	>
[8G/J	.	.	8Bn\J	.	.	.	.
.	.	.	.	.	16ddn\	-ry	.
*tuplet	*	*	*	*	*	*	*
!LO:TUP:a	!	!	!	!	!	!	!
12G/L]	8C\)	8en 8c/)	4ryy	]	4cc\	zórz	.
12c/	.	.	.	.	.	.	]
.	8r	8r	.	.	.	.	.
12c/J	.	.	.	.	.	.	.
!LO:TUP:b	!	!	!	!	!	!	!
12c\L	4ryy	(8.ccc/L	(4een\	pp	4r	.	.
12c\	.	.	.	.	.	.	.
12c\J	.	.	.	.	.	.	.
.	.	16gg/Jk	.	.	.	.	.
*v	*v	*	*	*	*	*	*
=70	=70	=70	=70	=70	=70	=70
*Xtuplet	*	*	*	*	*	*
!	!LO:ACC:color=grey	!	!	!	!	!
12c\L	4dddn/	2ff#X\)	.	2.r	.	.
12c\	.	.	.	.	.	.
12c\J	.	.	.	.	.	.
12c\L	4aan/)	.	.	.	.	.
12c\	.	.	.	.	.	.
12c\J	.	.	.	.	.	.
12c\L	(8.ccc/L	(4een\	<	.	.	.
12c\	.	.	.	.	.	.
12c\J	.	.	.	.	.	.
.	16gg/Jk	.	.	.	.	.
*clefG2	*	*	*	*	*	*
=71	=71	=71	=71	=71	=71	=71
*^	*	*	*	*	*	*
*	*tremolo	*	*	*	*	*	*
!	!LO:N:TREM:vis=4.	!	!	!	!	!	!
[4f#X/	12c\L	2bb-/)	2ee-X\)	.	2.r	.	.
.	12c\	.	.	[	.	.	.
.	12c\J	.	.	.	.	.	.
*	*Xtremolo	*	*	*	*	*	*
8.f#/L]	12c\L	.	.	.	.	.	.
.	12c\	.	.	.	.	.	.
.	12c\J	.	.	.	.	.	.
16g/Jk	.	.	.	.	.	.	.
4an/	12c\L	(4ff#X/	(4ee-\	>	.	.	.
.	12c\	.	.	.	.	.	.
.	12c\J	.	.	.	.	.	.
=72	=72	=72	=72	=72	=72	=72	=72
*	*tremolo	*	*	*	*	*	*
!	!LO:N:TREM:vis=4.	!	!	!	!	!	!
8b-/	12c\L	4gg/)	4ddn\)	.	2.r	.	.
.	12c\	.	.	]	.	.	.
8ryy	.	.	.	.	.	.	.
.	12c\J	.	.	.	.	.	.
*	*Xtremolo	*	*	*	*	*	*
12c\L	2ryy	(4dd/	4b-\	p	.	.	.
12c\	.	.	.	.	.	.	.
12c\J	.	.	.	<	.	.	.
12c\L	.	4ff 4an\	4ryy	.	.	.	.
12c\	.	.	.	.	.	.	.
12c\J	.	.	.	.	.	.	.
*v	*v	*	*	*	*	*	*
*	*v	*v	*	*	*	*
!!LO:LB:g=original
=73	=73	=73	=73	=73	=73
12c/L	8.eenL 8.g\)	.	2.r	.	.
12c/	.	.	.	.	.
12c/J	.	.	.	.	.
.	(16ddnJk 16f\	.	.	.	.
12c/L	4cc 4en/	.	.	.	.
12c/	.	[	.	.	.
12c/J	.	.	.	.	.
12c/L	8.ddL 8.f/)	.	.	.	.
12c/	.	.	.	.	.
12c/J	.	.	.	.	.
.	(>16ffJk 16an/	.	.	.	.
=74	=74	=74	=74	=74	=74
12c/L	8.eenL 8.g/)	.	4r	.	.
12c/	.	.	.	.	.
12c/J	.	.	.	.	.
.	(16bnJk 16dn/	.	.	.	.
12c/L	8cc 8en/)	.	4r	.	.
12c/	.	.	.	.	.
.	8r	.	.	.	.
12c/J	.	.	.	.	.
!	!	!	!LO:TX:a:i:t=dolce.	!	!
12c/L	4an 4f/	pp	8cc\	Ci-	.
12c/	.	.	.	.	.
.	.	.	8cc\	-sza	.
12c/J	.	.	.	.	.
=75	=75	=75	=75	=75	=75
*	*^	*	*	*	*
12c/L	[4b-/	8.f\L	.	4ddn\	wa-	.
12c/	.	.	.	.	.	.
12c/J	.	.	.	.	.	.
.	.	16dn\Jk	.	.	.	.
12c/L	8b-/]	8en\	<	8g/	-bi	.
!	!	!	!	!	!	!LO:HP:a
12c/	.	.	.	.	.	<
.	8r	8ryy	.	(8g/L	ci-	.
12c/J	.	.	.	.	.	.
*clefF4	*	*	*	*	*	*
12C/L	4g/	4e\	.	8an/J)	.	.
12C/	.	.	.	.	.	.
.	.	.	.	8b-/	-sza	[[
12C/J	.	.	[[	.	.	.
=76	=76	=76	=76	=76	=76	=76
12C/L	[4an/	8.g\L	.	4an/	nę-	.
12C/	.	.	.	.	.	.
12C/J	.	.	.	.	.	.
.	.	16en\Jk	.	.	.	.
12C/L	8a/]	8f\	.	4cc\	-ci,	.
12C/	.	.	.	.	.	.
.	8r	8ryy	.	.	.	.
12C/J	.	.	.	.	.	.
!	!	!	!	!	!	!LO:DY:a:rj
12C/L	4f 4An/	4ryy	pp	8ff\	ci-	p
12C/	.	.	.	.	.	.
.	.	.	.	8a/	-sza	.
12C/J	.	.	.	.	.	.
!!LO:LB:g=original
=77	=77	=77	=77	=77	=77	=77
*^	*	*	*	*	*	*
[4G/	12C\L	8.f/L	[4B-\	.	4ddn\	wa-	.
.	12C\	.	.	.	.	.	.
.	12C\J	.	.	.	.	.	.
.	.	16dn/Jk	.	.	.	.	.
8G/]	12C\L	8en/	8B-\]	.	8g/	-bi,	.
.	12C\	.	.	.	.	.	.
8rA	.	8r	8ryy	.	(8g/L	ci-	.
.	12C\J	.	.	.	.	.	.
4r	12C\L	4e 4B-/	4ryy	.	8an/J)	.	.
.	12C\	.	.	.	.	.	.
.	.	.	.	.	8b-/	-sza	.
.	12C\J	.	.	.	.	.	.
=78	=78	=78	=78	=78	=78	=78	=78
12C/L	(4FF\	(4g/	[4An\	.	4an/	nę-	.
12C/	.	.	.	.	.	.	.
12C/J	.	.	.	.	.	.	.
(12C'/L	4AAn\	8f/)	8A\]	<	8cc\	-ci	.
12F'/)	.	.	.	.	.	.	.
!	!	!	!	!	!	!	!LO:HP:a
.	.	8r	8ryy	.	8f/	O	<
12F/J	.	.	.	.	.	.	.
12F/L	4C\)	[4f/	8.e-\L	.	8g/	bo-	.
12F/	.	.	.	.	.	.	.
.	.	.	.	.	8a/	-daj	.
12F/J	.	.	.	.	.	.	.
.	.	.	16c\Jk	.	.	.	.
=79	=79	=79	=79	=79	=79	=79	=79
!LO:N:vis=3	!	!	!	!	!	!	!
12BB-/L	2.BB-\	4f/_	(4e-\	.	4.b-\	to	.
12F/	.	.	.	.	.	.	.
12F/J	.	.	.	.	.	.	.
12F/L	.	8f/]	8d-X\)	.	.	.	.
12F/	.	.	.	.	.	.	.
.	.	8r	8ryy	.	(8b-\L	cho-	.
12F/J	.	.	.	.	.	.	.
12F/L	.	[4f/	8.d-\L	.	8cc\J)	.	.
12F/	.	.	.	.	.	.	.
.	.	.	.	.	8dd-\	-ciaż	.
12F/J	.	.	.	.	.	.	.
.	.	.	16B-\Jk	.	.	.	.
=80	=80	=80	=80	=80	=80	=80	=80
!LO:N:vis=3	!	!	!	!	!	!	!
12AAn/L	2AAn\	4f/_	8.c\L	.	4ff\	we	.
12F/	.	.	.	.	.	.	.
12F/J	.	.	.	.	.	.	.
.	.	.	16d-\Jk	.	.	.	.
12F/L	.	8f/]	8e-\	.	4cc\	śnie	.
12F/	.	.	.	.	.	.	.
.	.	8r	8ryy	.	.	.	.
12F/J	.	.	.	.	.	.	.
12BB-/L	4BB-\	4en/	8.d-\L	.	4r	.	.
12F/	.	.	.	.	.	.	.
12F/J	.	.	.	.	.	.	.
.	.	.	16B-\Jk	.	.	.	.
!!LO:PB:g=original
=81	=81	=81	=81	=81	=81	=81	=81
!LO:N:vis=3	!	!	!	!	!	!	!
12AAn/L	2AAn\	(8.f/L	[4c\	.	4r	.	.
12F/	.	.	.	.	.	.	.
12F/J	.	.	.	.	.	.	.
.	.	16an/Jk	.	.	.	.	.
12F/L	.	8cc/)	8c\]	.	8r	.	.
12F/	.	.	.	.	.	.	.
.	.	8r	8ryy	.	(8f/L	zbyć	.
12F/J	.	.	.	.	.	.	.
12C/L	4C\	[4f/	(8.e-\L	.	8g/J)	.	.
12F/	.	.	.	.	.	.	.
.	.	.	.	.	8an/	się	.
12F/J	.	.	.	.	.	.	.
.	.	.	16c\Jk	.	.	.	.
=82	=82	=82	=82	=82	=82	=82	=82
!LO:N:vis=3	!	!	!	!	!	!	!
12BB-/L	2.BB-\	4f/_	4e-\	.	4cc\	my-	.
12F/	.	.	.	.	.	.	.
12F/J	.	.	.	.	.	.	.
12F/L	.	8f/]	8d-X\)	.	8b-\	-sli	.
12F/	.	.	.	.	.	.	.
.	.	8r	8ryy	.	(8b-\L	i	.
12F/J	.	.	.	.	.	.	.
12F/L	.	[4f/	(8.d-\L	.	8cc\J)	.	.
12F/	.	.	.	.	.	.	.
.	.	.	.	.	8dd-\	pa-	.
12F/J	.	.	.	.	.	.	.
.	.	.	16B-\Jk	.	.	.	.
=83	=83	=83	=83	=83	=83	=83	=83
!LO:N:vis=3	!	!	!	!	!	!	!
12AA-/L	2.AA-\	4f/_	4d-\	.	4ff\	-mię-	.
12F/	.	.	.	.	.	.	.
12F/J	.	.	.	.	.	.	.
12F/L	.	8f/]	8c\)	.	4cc\	-ci	.
12F/	.	.	.	.	.	.	.
.	.	(>8Bn/L	8ryy	.	.	.	.
12F/J	.	.	.	.	.	.	.
12F/L	.	8c/	[4c\	.	4r	.	.
12F/	.	.	.	.	.	.	.
.	.	8en/J	.	.	.	.	.
12F/J	.	.	.	.	.	.	.
*v	*v	*	*	*	*	*	*
=84	=84	=84	=84	=84	=84	=84
12FF/L	(8.f/L)	2c\]	.	4r	.	.
12A- 12C/	.	.	.	.	.	.
12A-J 12C/	.	.	.	.	.	.
.	16g/Jk	.	.	.	.	.
12A-L 12C/	4.a-/	.	.	4r	.	.
12A- 12C/	.	.	.	.	.	.
12A-J 12C/	.	.	.	.	.	.
12A-L 12C/	.	[4c\	.	8cc\	Co	.
12A- 12C/	.	.	.	.	.	.
.	8g/)	.	.	8cc\	u-	.
12A-J 12C/	.	.	.	.	.	.
!!LO:LB:g=original
=85	=85	=85	=85	=85	=85	=85
!	!	!	!	!	!	!LO:HP:a
12FF/L	([4f/	4c\]	.	[2aa-\	-drę-	<
12A- 12C/	.	.	.	.	.	.
12A-J 12C/	.	.	.	.	.	.
12A-L 12C/	8f/L]	[2c\	.	.	.	.
12A- 12C/	.	.	.	.	.	.
.	8g/	.	.	.	.	.
12A-J 12C/	.	.	.	.	.	.
12A-L 12C/	8.a-/	.	.	8aa-\]	.	[
12A- 12C/	.	.	.	.	.	.
.	.	.	.	8gg\	-cza	.
12A-J 12C/	.	.	.	.	.	.
.	16cc/Jk)	.	.	.	.	.
=86	=86	=86	=86	=86	=86	=86
12A-L 12C\	(8.cc/L	4c\_	.	8ff\	co	.
!	!	!	!	!	!	!LO:HP:a
12A- 12C\	.	.	<	.	.	<
.	.	.	.	8cc\	u-	.
12A-J 12C\	.	.	.	.	.	.
.	16a-/Jk	.	.	.	.	.
8A- 8C\	8f/)	8c\]	.	8b-\	-drę-	.
8r	8r	8ryy	.	8a-/	-cza	.
4A- 4F\	4dn 4c/	4ryy	.	8g/	tak	.
.	.	.	.	8f/	bo-	.
=87	=87	=87	=87	=87	=87	=87
!	!	!	!	!	!	!LO:HP:a
2F 2GG/	(4a- 4c/	2ryy	<	4a-/	-le-	>
.	4g 4Bn/)	.	.	4g/	-śnie	]
.	.	.	[	.	.	.
(>4E- [4GG/	(8.b-/L	4c\	sfz >	4r	.	.
.	16a-/Jk	.	]]	.	.	.
=88	=88	=88	=88	=88	=88	=88
2Dn 2GG/])	2g 2Bn/)	2ryy	.	2.r	.	.
!	!LO:TX:b:i:t=espres	!	!	!	!	!
4E- 4C/	8.g/L	4c\	p	.	.	.
.	16g/Jk	.	.	.	.	.
!!LO:LB:g=original
=89	=89	=89	=89	=89	=89	=89
[2.F [2.BB-/	(4b-/	2d-X\	.	2.r	.	.
.	4f/)	.	.	.	.	.
.	(8.dd-/L	8.f\L	.	.	.	.
.	16cc/Jk	16e-\Jk	.	.	.	.
=90	=90	=90	=90	=90	=90	=90
4F] 4BB-/]	4.b- 4.f 4.d-/)	2ryy	<	2.r	.	.
(2BB-^/	.	.	.	.	.	.
.	8a- 8e- 8c/	.	.	.	.	.
.	(8gL 8B-/	4d-\	.	.	.	.
.	8fJ 8A-/	.	.	.	.	.
=91	=91	=91	=91	=91	=91	=91
8.EE-/L	[4e- [4d-/)	8.G\L	<	2.r	.	.
16FF/Jk	.	16A-\Jk	.	.	.	.
8GG/)	8e-] 8d-/]	8B-\	.	.	.	.
8r	8r	8ryy	.	.	.	.
(4FF/	(8.a-/L	[4d- 4A-\	.	.	.	.
.	16f/Jk	.	[[	.	.	.
*	*v	*v	*	*	*	*
=92	=92	=92	=92	=92	=92
8GG/)	8e- 8d-] 8B-/)	>	2.r	.	.
4E-\	8r	.	.	.	.
.	4r	.	.	.	.
4E-\	.	.	.	.	.
.	4r	.	.	.	.
8E-\	.	]]	.	.	.
!!LO:LB:g=original
=93	=93	=93	=93	=93	=93
*^	*	*	*	*	*
!LO:N:vis=2	!	!	!	!	!	!
8AA-/	2.AA-\	16r	pp	4r	.	.
.	.	(16c/LL	.	.	.	.
4E-/	.	16e-/	.	.	.	.
.	.	16f/JJ	.	.	.	.
!	!	!	!	!	!	!LO:DY:a:rj
!	!	!	!	!	!	!LO:HP:a
.	.	16g/LL	.	[2cc\	W_cień	p <
.	.	16f/	.	.	.	.
4E-/	.	16g/	.	.	.	.
.	.	16f/JJ	.	.	.	.
.	.	8e-/)	.	.	.	.
8E-/	.	8r	.	.	.	[[
=94	=94	=94	=94	=94	=94	=94
!LO:N:vis=2	!	!	!	!	!	!
8AA-/	2.AA-\	16r	.	8cc\]	.	.
.	.	(16c/LL	.	.	.	.
!	!	!	!	!LO:TX:a:i:t=dolce.	!	!
4E-/	.	16e-/	.	8f/	o-	.
.	.	16c/JJ	.	.	.	.
.	.	16e-/LL	.	8g/	-wi-	.
.	.	16c/	.	.	.	.
4E-/	.	16e-/	.	8a-/	-nę	.
.	.	16f/JJ	.	.	.	.
.	.	8e-/)	.	8g/	się	.
8E-/	.	8r	.	8f/	jak	.
=95	=95	=95	=95	=95	=95	=95
!LO:N:vis=2	!	!	!	!	!	!
8BB-/	2.BB-\	16r	.	4dd-\	w_rą-	.
.	.	(16d-/LL	.	.	.	.
4E-/	.	16f/	.	.	.	.
.	.	16a-/JJ	.	.	.	.
.	.	16g/LL	.	4e-/	-bek	.
.	.	16f/	.	.	.	.
4E-/	.	16g/	.	.	.	.
.	.	16f/JJ)	.	.	.	.
.	.	[4a-/	.	4r	.	.
8E-/	.	.	.	.	.	.
=96	=96	=96	=96	=96	=96	=96
*	*	*^	*	*	*	*
!LO:N:vis=2	!	!	!	!	!	!	!
8BB-/	2.BB-\	8a-/L]	4r	.	2.r	.	.
4E-/	.	(8f/	.	.	.	.	.
.	.	8g/	(2d-\	.	.	.	.
4E-/	.	8a-/	.	.	.	.	.
.	.	8g/	.	.	.	.	.
8E-/	.	8f/J	.	.	.	.	.
*	*	*v	*v	*	*	*	*
!!LO:PB:g=original
=97	=97	=97	=97	=97	=97	=97
!LO:N:vis=2	!	!	!	!	!	!
8C/	2.C\	16a-LL 16e-/))	.	8r	.	.
.	.	(16e-/	.	.	.	.
!	!	!	!	!	!	!LO:HP:a
4A-/	.	16c/	.	(8e-/L	Księ-	<
.	.	16e-/JJ	.	.	.	.
.	.	16c/LL	.	8f/J)	.	.
.	.	16e-/	.	.	.	.
4A-/	.	16c/	.	8a-/	-życ	.
.	.	16f/JJ	.	.	.	.
.	.	8e-/)	.	8b-\	przy-	.
8A-/	.	8r	.	8cc\	-ćmię	[[
=98	=98	=98	=98	=98	=98	=98
!LO:N:vis=2	!	!	!	!	!	!
8C/	2.C\	16r	.	4.ee-\	gwia-	.
.	.	(16e-/LL	.	.	.	.
4A-/	.	16c/	.	.	.	.
.	.	16e-/JJ	.	.	.	.
.	.	16c/LL	.	.	.	.
.	.	16e-/	.	.	.	.
4A-/	.	16c/	.	8cc,\	-zdy	.
.	.	16e-/JJ	.	.	.	.
.	.	8.a-/L	.	8a-/	zdmu-	.
8A-/	.	.	.	8cc\	-chnę	.
.	.	16g/Jk)	.	.	.	.
*v	*v	*	*	*	*	*
=99	=99	=99	=99	=99	=99
*	*^	*	*	*	*
8FF/	[4g/	4r	.	4ff\	gwia-	.
4A- 4C/	.	.	.	.	.	.
.	16g/LL]	[2c\	.	4cc\	-zdy	.
.	16f/	.	.	.	.	.
4A- 4C/	16g/	.	.	.	.	.
.	16b-/JJ	.	.	.	.	.
.	8.a-/L	.	.	4r	.	.
8A- 8C/	.	.	.	.	.	.
.	16en/Jk	.	.	.	.	.
=100	=100	=100	=100	=100	=100	=100
8FF/	(4g/	16c\LL]	.	2.ryy	.	.
.	.	(16c\	.	.	.	.
4A- 4C/	.	16d-\	.	.	.	.
.	.	16c\JJ	.	.	.	.
.	8f/)	16d-\LL	.	.	.	.
.	.	16c\	.	.	.	.
4A- 4C/	8r	16Bn\	.	.	.	.
.	.	16d-\JJ	.	.	.	.
.	8r	8c\)	.	.	.	.
8A- 8C/	8c/	8r	.	.	.	.
*	*v	*v	*	*	*	*
!!LO:LB:g=original
=101	=101	=101	=101	=101	=101
*^	*	*	*	*	*
!LO:N:vis=2	!	!	!	!	!	!
8BB-/	2.BB-\	([4e-/	.	4r	.	.
4F/	.	.	.	.	.	.
!	!	!	!	!	!	!LO:HP:a
.	.	16e-/LL]	.	[2ee-\	Skrzy-	<
.	.	16d-/	.	.	.	.
4F/	.	16c/	.	.	.	.
.	.	16e-/JJ	.	.	.	.
.	.	8.d-/L	.	.	.	.
8F/	.	.	.	.	.	.
.	.	16c/Jk)	.	.	.	.
=102	=102	=102	=102	=102	=102	=102
*	*	*^	*	*	*	*
!LO:N:vis=2	!	!	!	!	!	!	!
8BB-/	2.BB-\	(8.B-/L	4B-\	.	8ee-\]	.	[
!	!	!	!	!	!LO:TX:a:i:t=espres.	!	!
4F/	.	.	.	.	8dd-\	-dła	.
.	.	16d-/Jk	.	.	.	.	.
.	.	4f/	8r	.	8cc\	we-	.
4F/	.	.	4d-\	.	8b-\	-zmę	.
.	.	4en/)	.	.	8a-/	dwa	.
8F/	.	.	8d-\	.	8g/	bie-	.
=103	=103	=103	=103	=103	=103	=103	=103
!LO:N:vis=2	!	!	!	!	!	!	!
8AA-/	2AA-\	[4g/	8r	.	(8cc/L	-lu-	.
4F/	.	.	4c\	.	8a-/J)	.	.
.	.	(16g/LL]	.	.	4f/	-chne	.
.	.	16b-/	.	.	.	.	.
4F/	.	16a-/	8c\	.	.	.	.
.	.	16f/JJ	.	.	.	.	.
.	4BB-\	8.g/L	[4f\	.	4r	.	.
[8F/	.	.	.	.	.	.	.
.	.	16dd-/Jk	.	.	.	.	.
=104	=104	=104	=104	=104	=104	=104	=104
8F/L]	2C\	4cc/)	4f\]	.	4r	.	.
[8F/J	.	.	.	.	.	.	.
16F/LL]	.	4a-/	4f\	.	4r	.	.
16En/	.	.	.	.	.	.	.
16F/	.	.	.	.	.	.	.
16G/JJ	.	.	.	.	.	.	.
!	!	!	!	!	!	!	!LO:HP:a
[4A-/	8.F\L	8.dn/L	[4c\	.	8f/	I	<
.	.	.	.	.	8a-/	po-	.
.	16Dn\Jk	16f/Jk	.	.	.	.	.
*	*	*v	*v	*	*	*	*
!!LO:LB:g=original
=105	=105	=105	=105	=105	=105	=105
!	!	!LO:TX:b:i:t=suivez.	!	!	!	!
8A-/]	[2.E-\	16e-LL 16c/]	.	8cc\	-le-	.
.	.	(16e-/	.	.	.	.
4A-/	.	16c/	.	8ee-\	-cę	.
.	.	16e-/JJ	.	.	.	[
!	!	!	!	!	!	!LO:DY:a:rj
.	.	16c/LL	.	(4aa-;\	jak	p
.	.	16e-/	.	.	.	.
4A-/	.	16c/	.	.	.	.
.	.	16e-/JJ	.	.	.	.
.	.	16c/LL	.	8gg\)	.	.
.	.	16e-/	.	.	.	.
8A-/	.	16c/	.	8cc\	go-	.
.	.	16e-/JJ	.	.	.	.
*v	*v	*	*	*	*	*
=106	=106	=106	=106	=106	=106
[4A- 4E-\_	16c/LL	.	4ff\	-łą-	.
.	16e-/	.	.	.	.
.	16f/	.	.	.	.
.	16a-/JJ	.	.	.	.
!	!	!	!	!	!LO:HP:a
8A-] 8E-\]	8cc\)	.	8ee-\	-bek	<
8r	8r	.	(8cc\L	i	.
4r	4r	.	8b-\J)	.	.
.	.	.	8a-/	po-	[
=107	=107	=107	=107	=107	=107
*^	*	*	*	*	*
!LO:N:vis=2	!	!	!	!	!	!
8E-/	[2.E-\	16r	<	8g/	-le-	.
.	.	(16f/LL	.	.	.	.
4B-/	.	16d-/	.	8a-/	-cę	.
.	.	16f/JJ	.	.	.	.
!	!	!	!	!	!	!LO:HP:a
.	.	16d-/LL	.	[2ff\	jak	<
.	.	16f/	.	.	.	.
4B-/	.	16d-/	.	.	.	.
.	.	16f/JJ	.	.	.	.
.	.	16d-/LL	.	.	.	.
.	.	16f/	.	.	.	.
8B-/	.	16d-/	.	.	.	.
.	.	16f/JJ	[[	.	.	.
=108	=108	=108	=108	=108	=108	=108
8B-/	4E-\_	16d-/LL	.	2ff\_	.	[
.	.	16f/	.	.	.	.
4B-/	.	16g/	.	.	.	.
.	.	16b-/JJ	.	.	.	.
.	8E-\]	8dd-\)	.	.	.	.
8r	8ryy	8r	.	.	.	.
(4E-\	4ryy	(4g (4d-/	p	8ff\]	.	.
!	!	!	!	!	!	!LO:DY:a:rj
.	.	.	.	8g/	go-	p
*v	*v	*	*	*	*	*
!!LO:LB:g=original
=109	=109	=109	=109	=109	=109
*ped	*	*	*	*	*
!	!	!	!	!	!LO:HP:a
8AA-\L)	8a-L 8c/))	<	[2.ee-\	-łą-	<[
(8E-\	(8c/	.	.	.	.
8A-\	8f/	.	.	.	.
8c\	8e-/	.	.	.	.
*clefG2	*	*	*	*	*
8e-\	8cc/	.	.	.	.
8f\J	8a-/J	[[	.	.	.
=110	=110	=110	=110	=110	=110
!	!	!	!	!	!LO:HP:a
8a-\L	8ff\L	>	2.ee-\_	.	>
8cc\	8ee-\	.	.	.	.
8ee-\	8ccc\	.	.	.	.
8ff\	8aa-\	.	.	.	.
8aa-\	8fff\	.	.	.	.
8ccc\J	8eee-\J	]]	.	.	.
=111	=111	=111	=111	=111	=111
*Xped	*	*	*	*	*
8aa-\)	8cccc\)	.	4ee-\]	.	]
8r	8r	.	.	.	.
4r	4r	.	4a-/	-bek.	.
*clefF4	*	*	*	*	*
([4E- 4EE-/	(8.ccL 8.e-/	pp >	4r	.	.
.	16gJk 16d-/	.	.	.	.
=112	=112	=112	=112	=112	=112
4E-] 4AA-/)	2a- 2c/)	.	2.r	.	.
4AAA-/	.	]	.	.	.
4r	4r	.	.	.	.
==	==	==	==	==	==
*-	*-	*-	*-	*-	*-
!!!system-decoration: <s1>{(s2,s3)}
!!!RDF**kern: > = above
!!!RDF**kern: < = below
!!!ENC: Andrzej Kubiczek
!!!END: 2022-03-06
!!!AIN: 1 piano 1 vox
!!!ENC: Andrzej Kubiczek
!!!END: 2022-03-07
